_includes/icons/ios-home-address.svg

<svg fill="#666" height="50" viewBox="0 0 50 50" width="50" xmlns="http://www.w3.org/2000/svg"><path d="m24.962891 1.0546875a1.0001 1.0001 0 0 0 -.578125.2089844l-23.0000004 17.9472661a1.0005659 1.0005659 0 0 0 1.2304688 1.578124l1.3847656-1.080078v26.291016a1.0001 1.0001 0 0 0 1 1h13.832031a1.0001 1.0001 0 0 0 .326172 0h11.673828a1.0001 1.0001 0 0 0 .326172 0h13.841797a1.0001 1.0001 0 0 0 1-1v-26.291016l1.384766 1.080078a1.0005657 1.0005657 0 1 0 1.230468-1.578124l-7.615234-5.941407c-.000078-.208042.00006-.448908 0-.761719-.000141-.731493.000062-1.698068 0-2.6621089-.000125-1.928082 0-3.8457031 0-3.8457031a1.0001 1.0001 0 0 0 -1-1h-4a1.0001 1.0001 0 0 0 -1 1s.000625 1.1570629 0 2.3144531c-.000054.099408.000063.1747622 0 .2734375l-9.384766-7.3242187a1.0001 1.0001 0 0 0 -.652343-.2089844zm.037109 2.2675781 10.378906 8.0976564a1.0001 1.0001 0 0 0 .988282.140625s.619121-.79868.61914-.798828c.00002-.000149.00506-.053333.00586-.064453.0015-.02226.001653-.028427.001953-.035157.000451-.01345.001753-.020093.001953-.027343.000241-.0145-.000149-.028435 0-.046875.000298-.03688-.000242-.08823 0-.152344.000484-.128229.001553-.309812.001953-.5273439.000523-.4350707.00164-1.0127418.001953-1.5917969.000355-.6581499-.000066-.8709329 0-1.3164062h2c.000006.6422969-.000092 1.4189176 0 2.8457031.000063.9640839-.000141 1.9304469 0 2.6621089.00007.365832-.000096.672112 0 .890626.000096.218512.000933.282578.001953.371093a1.0001 1.0001 0 0 0 .384766.777344l4.613281 3.599609v26.853516h-12v-19h-14v19h-12v-26.851562zm-5 24.6777344h10v17h-10zm7 7a1 1 0 0 0 -1 1 1 1 0 0 0 1 1 1 1 0 0 0 1-1 1 1 0 0 0 -1-1z"/></svg>

<svg xmlns="http://www.w3.org/2000/svg" viewBox="0 0 50 50" width="50" height="50" fill="#666"><path style="line-height:normal;text-indent:0;text-align:start;text-decoration-line:none;text-decoration-style:solid;text-decoration-color:#000;text-transform:none;block-progression:tb;isolation:auto;mix-blend-mode:normal" d="M 24.962891 1.0546875 A 1.0001 1.0001 0 0 0 24.384766 1.2636719 L 1.3847656 19.210938 A 1.0005659 1.0005659 0 0 0 2.6152344 20.789062 L 4 19.708984 L 4 46 A 1.0001 1.0001 0 0 0 5 47 L 18.832031 47 A 1.0001 1.0001 0 0 0 19.158203 47 L 30.832031 47 A 1.0001 1.0001 0 0 0 31.158203 47 L 45 47 A 1.0001 1.0001 0 0 0 46 46 L 46 19.708984 L 47.384766 20.789062 A 1.0005657 1.0005657 0 1 0 48.615234 19.210938 L 41 13.269531 C 40.999922 13.061489 41.00006 12.820623 41 12.507812 C 40.999859 11.776319 41.000062 10.809744 41 9.8457031 C 40.999875 7.9176211 41 6 41 6 A 1.0001 1.0001 0 0 0 40 5 L 36 5 A 1.0001 1.0001 0 0 0 35 6 C 35 6 35.000625 7.1570629 35 8.3144531 C 34.999946 8.4138611 35.000063 8.4892153 35 8.5878906 L 25.615234 1.2636719 A 1.0001 1.0001 0 0 0 24.962891 1.0546875 z M 25 3.3222656 L 35.378906 11.419922 A 1.0001 1.0001 0 0 0 36.367188 11.560547 C 36.367188 11.560547 36.986309 10.761867 36.986328 10.761719 C 36.986348 10.76157 36.991388 10.708386 36.992188 10.697266 C 36.993688 10.675006 36.993841 10.668839 36.994141 10.662109 C 36.994592 10.648659 36.995894 10.642016 36.996094 10.634766 C 36.996335 10.620266 36.995945 10.606331 36.996094 10.587891 C 36.996392 10.551011 36.995852 10.499661 36.996094 10.435547 C 36.996578 10.307318 36.997647 10.125735 36.998047 9.9082031 C 36.99857 9.4731324 36.999687 8.8954613 37 8.3164062 C 37.000355 7.6582563 36.999934 7.4454733 37 7 L 39 7 C 39.000006 7.6422969 38.999908 8.4189176 39 9.8457031 C 39.000063 10.809787 38.999859 11.77615 39 12.507812 C 39.00007 12.873644 38.999904 13.179924 39 13.398438 C 39.000096 13.61695 39.000933 13.681016 39.001953 13.769531 A 1.0001 1.0001 0 0 0 39.386719 14.546875 L 44 18.146484 L 44 45 L 32 45 L 32 26 L 18 26 L 18 45 L 6 45 L 6 18.148438 L 25 3.3222656 z M 20 28 L 30 28 L 30 45 L 20 45 L 20 28 z M 27 35 A 1 1 0 0 0 26 36 A 1 1 0 0 0 27 37 A 1 1 0 0 0 28 36 A 1 1 0 0 0 27 35 z"/></svg>
